X: 1
T: David's Jig
C: Natalie MacMaster
S: page from Boston Harbor Scottish Fiddle School 2013, via Lance Ramshaw's slow session collection
R: jig
Z: 2013 John Chambers <jc:trillian.mit.edu>
M: 6/8
L: 1/8
K: Gm
[|\
G2D GAB | AFD G2B | AFF dFF | cBA Acf |\
G2D GAB | AFD G2g | gfd cdf | cdf cAF |
G2D GAB | AFD G2B | AFF dFc | FBF Acf |\
G2D GAB | AFD G2g | gfd cdf | cdf cdf |]
[|\
g2d gab | afd g2a | fcc acc | gcc fga |\
g2d gab | afd g2a | fgf cdf | cAF G3  |
g2d gab | afd g2a | fcc acc | gcc fga |\
gag gfc | dff fcA | Bdd dBG | Acc cAF |]
